!!!!SEGMENT: Bar2002-Nuptie_facte_sunt.krn
!!!id: Bar2002
!!!AGN: Motet
!!!voices: 4
!!!COM: Hotinet Barra
!!!OTL: Nuptie facte sunt
**kern	**kern	**kern	**kern
*part4	*part3	*part2	*part1
*staff4	*staff3	*staff2	*staff1
*I"Bassus	*I"Tenor	*I"Altus	*I"Superius
*I'B	*I'T	*I'A	*I'S
*clefF4	*clefGv2	*clefG2	*clefG2
*k[b-]	*k[b-]	*k[b-]	*k[b-]
*F:	*F:	*F:	*F:
*M2/1	*M2/1	*M2/1	*M2/1
*met(C|)	*met(C|)	*met(C|)	*met(C|)
!!section: Prima Pars: Nuptie facte sunt
!!!OMD: Prima Pars: Nuptie facte sunt
=1	=1	=1	=1
1.d	0r	0r	0r
2G	.	.	.
=2	=2	=2	=2
0G	0r	0r	0r
=3	=3	=3	=3
1d	0r	1.a	0r
2c	.	.	.
[2B-y	.	2d	.
=4	=4	=4	=4
2B-]	0r	1d	0r
4A	.	.	.
4G	.	.	.
1F	.	1a	.
=5	=5	=5	=5
2.B-y	0r	2g	0r
.	.	1f	.
4B-y	.	.	.
2B-y	.	.	.
2B-y	.	4e	.
.	.	4d	.
=6	=6	=6	=6
2A	0r	1c	0r
2A	.	.	.
2.D	.	2.f	.
4E	.	4f	.
=7	=7	=7	=7
4F	0r	2f	0r
4G	.	.	.
4A	.	2f	.
4B-y	.	.	.
4c	.	2e	.
4B-y	.	.	.
[2G	.	2e	.
=8	=8	=8	=8
4G]	0r	2.d	0r
4A	.	.	.
4B-y	.	.	.
4c	.	4e	.
4d	.	4f	.
4B-y	.	4g	.
[2c	.	[2a	.
=9	=9	=9	=9
2c]	0r	4a]	0r
.	.	4g	.
2B-y	.	1g	.
1A	.	.	.
.	.	2f#i	.
=10	=10	=10	=10
0G	1.d	0g	1r
.	.	.	[1dd
.	2G	.	.
=11	=11	=11	=11
0r	1G	0r	2dd]
.	.	.	2g
.	[1g	.	1g
=12	=12	=12	=12
0r	2g]	0r	1dd
.	2f	.	.
.	1e	.	2cc
.	.	.	[2b-y
=13	=13	=13	=13
0r	0d	0r	2b-]
.	.	.	4a
.	.	.	4g
.	.	.	[1f
=14	=14	=14	=14
0r	2.B-y	0r	1f]
.	4B-y	.	.
.	2B-y	.	2.ff
.	2B-y	.	.
.	.	.	4ff
=15	=15	=15	=15
0r	2A	0r	2ff
.	2A	.	2ff
.	2.G	.	2ee
.	.	.	2ee
.	4A	.	.
=16	=16	=16	=16
0r	4B-y	0r	2.dd
.	4c	.	.
.	4d	.	.
.	4e	.	8ccL
.	.	.	8b-yJ
.	4f	.	2a
.	4d	.	.
.	[2e	.	[2g
=17	=17	=17	=17
2r	4e]	0r	4g]
.	4d	.	4f
2G	1d	.	2.b-y
2A	.	.	.
.	.	.	4a
2F	2c	.	[2a
=18	=18	=18	=18
1B-y	1d	2r	2a]
.	.	2d	2g
1A	1r	2e	[1a
.	.	2c	.
=19	=19	=19	=19
2D	2r	1f	1a]
1d	2d	.	.
.	2e	1e	1r
2c	2c	.	.
=20	=20	=20	=20
1d	1f	1d	2r
.	.	.	2dd
1A	1e	1c	2ee
.	.	.	2cc
=21	=21	=21	=21
1D	1d	2r	1ff
.	.	2d	.
2r	1c	2e	1ee
2A	.	2c	.
=22	=22	=22	=22
2.B-y	1r	1f	0dd
4G	.	.	.
1B-y	1d	1g	.
=23	=23	=23	=23
1A	1e	2.a	[0cc
.	.	4g	.
2A	2c	4a	.
.	.	4b-y	.
[2F	[2f	[2cc	.
=24	=24	=24	=24
4F]	2f]	4cc]	0cc_
4G	.	4b-y	.
4A	2f	2a	.
4B-y	.	.	.
1c	1e	1g	.
=25	=25	=25	=25
[0F	[0f	0a	0cc]
=26	=26	=26	=26
0F]	0f]	0r	2r
.	.	.	2a
.	.	.	2.a
.	.	.	4b-y
=27	=27	=27	=27
2r	1f	0r	2cc
2F	.	.	1dd
2G	2e	.	.
2A	2e	.	2cc#i
=28	=28	=28	=28
2B-y	1d	2r	0dd
2G	.	2d	.
[1B-y	1G	2.d	.
.	.	4e	.
=29	=29	=29	=29
2B-]	1d	2f	1r
4A	.	1g	.
4G	.	.	.
1A	1c	.	1a
.	.	2f#i	.
=30	=30	=30	=30
1G	1B-y	1g	1.b-y
1r	1r	1g	.
.	.	.	4a
.	.	.	4g
=31	=31	=31	=31
0r	0r	2a	2f
.	.	2.b-y	2g
.	.	.	2d
.	.	4a	.
.	.	4b-y	2dd
.	.	4g	.
=32	=32	=32	=32
0r	0r	2a	2cc
.	.	2.b-y	2.dd
.	.	4a	4cc
.	.	4b-y	4dd
.	.	4g	4ee
=33	=33	=33	=33
0r	0r	2.a	4ff
.	.	.	4dd
.	.	.	2.ee
.	.	8gL	.
.	.	8fJ	.
.	.	4g	.
.	.	4f	4dd
.	.	4e	[2dd
.	.	4d	.
=34	=34	=34	=34
1r	0r	1e	2dd]
.	.	.	2cc#i
[1B-y	.	[1d	[1dd
=35	=35	=35	=35
1B-]	0r	0d]	0dd]
1G	.	.	.
=36	=36	=36	=36
1A	1r	0r	0r
2.B-y	[1f	.	.
8AL	.	.	.
8GJ	.	.	.
=37	=37	=37	=37
2A	1f]	0r	0r
2.B-y	.	.	.
.	1d	.	.
4A	.	.	.
4G	.	.	.
4F	.	.	.
=38	=38	=38	=38
2G	1e	0r	0r
2A	.	.	.
2D	2.f	.	.
2d	.	.	.
.	8eL	.	.
.	8dJ	.	.
=39	=39	=39	=39
2c	2e	0r	1r
2.d	2.f	.	.
.	.	.	[1ff
4c	4e	.	.
4B-y	4d	.	.
4A	4c	.	.
=40	=40	=40	=40
1B-y	1d	0r	2ff]
.	.	.	2dd
1A	1c	.	1ee
=41	=41	=41	=41
1D	2r	0r	2.ff
.	2d	.	.
.	.	.	8eeL
.	.	.	8ddJ
1r	2c	.	2ee
.	[2d	.	[2ff
=42	=42	=42	=42
0r	4d]	1.b-y	4ff]
.	4c	.	4ee
.	4B-y	.	4dd
.	4A	.	4cc
.	1B-y	.	1dd
.	.	2g	.
=43	=43	=43	=43
0r	1A	1a	2cc
.	.	.	2.ff
.	[1d	2.b-y	.
.	.	.	4ee
.	.	.	4dd
.	.	8aL	4cc
.	.	8gJ	.
=44	=44	=44	=44
0r	1d]	2a	4dd
.	.	.	4cc
.	.	2.b-y	4b-y
.	.	.	4a
.	1e	.	1g
.	.	4a	.
.	.	4g	.
.	.	4f	.
=45	=45	=45	=45
0r	1c	1g	1cc
.	[1d	1f	[1a
=46	=46	=46	=46
1r	0d_	2r	1a]
.	.	1f	.
2r	.	.	1r
2F	.	2f	.
=47	=47	=47	=47
1B-y	1d]	2d	0r
.	.	2d	.
2G	1r	1g	.
2G	.	.	.
=48	=48	=48	=48
2A	0r	1f	0r
2B-y	.	.	.
2c	.	2e	.
[2B-y	.	[2d	.
=49	=49	=49	=49
2B-]	0r	2d]	0r
4A	.	4c	.
4G	.	4B-y	.
4F	.	4A	.
4G	.	4B-y	.
4A	.	4c	.
4B-y	.	4d	.
=50	=50	=50	=50
4c	0r	4e	0r
4d	.	4f	.
4e	.	4g	.
4c	.	4a	.
2.d	.	2.b-y	.
4c	.	8aL	.
.	.	8gJ	.
=51	=51	=51	=51
2c	0r	2a	0r
2e-X	.	2.cc	.
2.d	.	.	.
.	.	4b-y	.
.	.	[2b-y	.
8cL	.	.	.
8B-yJ	.	.	.
=52	=52	=52	=52
1c	0r	2b-]	2r
.	.	2a	2cc
1B-y	.	2g	2dd
.	.	2f	[2ff
=53	=53	=53	=53
1r	2r	1g	2ff]
.	2c	.	2ee
2r	2d	1f	2dd
2F	[2f	.	2cc
=54	=54	=54	=54
2G	2f]	1r	2.b-y
2G	2e	.	.
.	.	.	8aL
.	.	.	8gJ
2.F	1f	[1cc	[1a
4G	.	.	.
=55	=55	=55	=55
1A	1e	1cc]	1a]
1D	[1d	1a	2r
.	.	.	[2f
=56	=56	=56	=56
1d	1d]	2.a	4f]
.	.	.	4g
.	.	.	4a
.	.	8gL	4b-y
.	.	8fJ	.
2c	2r	1g	4cc
.	.	.	4b-y
2c	2e	.	[2cc
=57	=57	=57	=57
1F	2.f	1a	4cc]
.	.	.	4b-y
.	.	.	4cc
.	8eL	.	4dd
.	8dJ	.	.
1r	2c	1r	4ee
.	.	.	4cc
.	2B-y	.	[2ff
=58	=58	=58	=58
0r	1c	1g	2ff]
.	.	.	2ee
.	1F	4a	[1ff
.	.	4b-y	.
.	.	4cc	.
.	.	4a	.
=59	=59	=59	=59
2r	0r	2b-y	1ff]
2F	.	2.a	.
1G	.	.	1r
.	.	4g	.
.	.	[2g	.
=60	=60	=60	=60
1A	0r	2g]	1r
.	.	2f#i	.
1G	.	[1g	2r
.	.	.	2dd
=61	=61	=61	=61
0r	2r	1g]	4ee
.	.	.	4ff
.	2c	.	4gg
.	.	.	4ee
.	2d	1r	2ff
.	2e	.	[2ee
=62	=62	=62	=62
2r	2f	0r	4ee]
.	.	.	4dd
2G	2g	.	1dd
4A	1e	.	.
4B-y	.	.	.
4c	.	.	2cc#i
4A	.	.	.
=63	=63	=63	=63
1B-y	1d	1r	1dd
2A	1r	2r	2cc
[2G	.	2g	2b-y
=64	=64	=64	=64
2G]	1r	4a	1a
.	.	4b-y	.
2F#i	.	4cc	.
.	.	4a	.
1G	1d	1b-y	1g
=65	=65	=65	=65
0r	2c	2a	0r
.	2B-y	1g	.
.	1A	.	.
.	.	2f#i	.
=66	=66	=66	=66
1r	1G	0g	2r
.	.	.	2dd
2r	1r	.	4ee
.	.	.	4ff
2G	.	.	4gg
.	.	.	4ee
=67	=67	=67	=67
4A	2r	1r	2ff
4B-y	.	.	.
4c	2c	.	2.ee
4A	.	.	.
1B-y	1d	2r	.
.	.	.	4dd
.	.	2g	[2dd
=68	=68	=68	=68
1A	1e	4a	2dd]
.	.	4b-y	.
.	.	4cc	2cc#i
.	.	4a	.
2r	2.d	2b-y	1dd
2F	.	[2a	.
.	4c	.	.
=69	=69	=69	=69
1G	2.B-y	4a]	[0dd
.	.	4g	.
.	.	1g	.
.	8AL	.	.
.	8GJ	.	.
1D	1A	.	.
.	.	2f#i	.
=70	=70	=70	=70
1G	1r	2.g	0dd]
.	.	8fL	.
.	.	8eJ	.
1r	[1f	1d	.
=71	=71	=71	=71
1.B-y	2f]	0r	0r
.	2e	.	.
.	2d	.	.
2A	2c	.	.
=72	=72	=72	=72
2G	1d	0r	0r
2F	.	.	.
2G	1e	.	.
2A	.	.	.
=73	=73	=73	=73
0B-y	0d	1r	1.ff
.	.	[1b-y	.
.	.	.	2ee
=74	=74	=74	=74
0r	0r	2b-]	2dd
.	.	2a	2cc
.	.	2g	1dd
.	.	2f	.
=75	=75	=75	=75
1r	1r	2g	1ee
.	.	2a	.
2r	2r	[1b-y	[1dd
2B-y	2d	.	.
=76	=76	=76	=76
1B-y	1d	1b-]	1dd]
2G	1e	1r	1r
2A	.	.	.
=77	=77	=77	=77
2.B-y	2.d	2r	1dd
.	.	2f	.
4A	8cL	.	.
.	8B-yJ	.	.
2F	4A	1f	2.cc
.	4G	.	.
2A	[2c	.	.
.	.	.	8b-yL
.	.	.	8aJ
=78	=78	=78	=78
1G	2c]	1d	1b-y
.	2B-y	.	.
[1F	[1c	[1f	1a
=79	=79	=79	=79
1F]	1c]	1f]	2r
.	.	.	2ff
1r	1r	2r	1ff
.	.	2b-y	.
=80	=80	=80	=80
0r	0r	1b-y	1dd
.	.	1g	[1ee
=81	=81	=81	=81
0r	0r	1.a	2ee]
.	.	.	2cc
.	.	.	2.cc
.	.	2f	.
.	.	.	4dd
=82	=82	=82	=82
0r	0r	2g	2ee
.	.	2a	1ff
.	.	1g	.
.	.	.	2ee
=83	=83	=83	=83
2r	0r	0f	[0ff
2F	.	.	.
1F	.	.	.
=84	=84	=84	=84
1D	2r	0r	0ff]
.	2f	.	.
2r	1f	.	.
2B-y	.	.	.
=85	=85	=85	=85
1B-y	1d	0r	0r
1G	[1e	.	.
=86	=86	=86	=86
1.A	2e]	0r	0r
.	2c	.	.
.	2.c	.	.
2F	.	.	.
.	4d	.	.
=87	=87	=87	=87
2G	2e	0r	0r
2A	1f	.	.
1G	.	.	.
.	2e	.	.
=88	=88	=88	=88
1F	2.f	1r	2r
.	.	.	2cc
.	4e	.	.
1r	4d	2r	1dd
.	4c	.	.
.	[2B-y	2f	.
=89	=89	=89	=89
1r	2B-]	1g	1b-y
.	2G	.	.
2r	1A	1e	1cc
2c	.	.	.
=90	=90	=90	=90
1d	2r	1f	2r
.	2f	.	2a
1B-y	1g	1r	1b-y
=91	=91	=91	=91
1c	1e	1r	1g
2r	1f	2r	1a
2F	.	2a	.
=92	=92	=92	=92
1G	0r	1b-y	0r
1E	.	1g	.
=93	=93	=93	=93
2F	1r	1a	2r
2F	.	.	2cc
1B-y	2r	2r	1dd
.	2d	2f	.
=94	=94	=94	=94
1G	1e	1g	1b-y
1A	1c	1e	1cc
=95	=95	=95	=95
2D	1.d	1f	0r
1B-y	.	.	.
.	.	2r	.
4A	4c	[2f	.
4G	4B-y	.	.
=96	=96	=96	=96
1B-y	1d	2f]	0r
.	.	4e	.
.	.	4d	.
2A	2c	2f	.
[2G	[2B-y	[2e	.
=97	=97	=97	=97
2G]	2B-]	4e]	2r
.	.	4d	.
2F	1A	1d	2dd
1E	.	.	4ee
.	.	.	4ff
.	2G	2c#i	4gg
.	.	.	4ee
=98	=98	=98	=98
2D	2.A	1d	2.ff
2d	.	.	.
.	4B-y	.	8eeL
.	.	.	8ddJ
2c	2c	2r	2ee
2B-y	2d	2g	[2dd
=99	=99	=99	=99
1A	1e	4a	2dd]
.	.	4b-y	.
.	.	4cc	2cc#i
.	.	4a	.
2r	1d	2b-y	1dd
2d	.	[2a	.
=100	=100	=100	=100
2c	2r	4a]	0r
.	.	4g	.
2B-y	2G	1g	.
1A	4A	.	.
.	4B-y	.	.
.	4c	2f#i	.
.	4A	.	.
=101	=101	=101	=101
1G	2.B-y	0g	2r
.	.	.	2dd
.	4G	.	.
2r	2c	.	4ee
.	.	.	4ff
2G	2B-y	.	4gg
.	.	.	4ee
=102	=102	=102	=102
4A	1A	1r	2ff
4B-y	.	.	.
4c	.	.	2.ee
4A	.	.	.
1B-y	2G	2r	.
.	.	.	4dd
.	2d	2g	[2dd
=103	=103	=103	=103
1A	2f	4a	2dd]
.	.	4b-y	.
.	2e	4cc	2cc#i
.	.	4a	.
2r	1d	2b-y	1dd
2d	.	[2a	.
=104	=104	=104	=104
2c	2r	4a]	0r
.	.	4g	.
2B-y	2G	1g	.
1A	4A	.	.
.	4B-y	.	.
.	4c	2f#i	.
.	4A	.	.
=105	=105	=105	=105
1G	4B-y	1g	2r
.	4A	.	.
.	1d	.	2dd
1r	.	1r	4ee
.	.	.	4ff
.	2c	.	4gg
.	.	.	4ee
=106	=106	=106	=106
0r	2.d	0r	1.ff
.	4e	.	.
.	2f	.	.
.	[2g	.	[2ee
=107	=107	=107	=107
0r	2g]	0r	4ee]
.	.	.	4dd
.	2f	.	1dd
.	1e	.	.
.	.	.	2cc#i
=108	=108	=108	=108
0r	[0d	1d	[0dd
.	.	1a	.
=109	=109	=109	=109
1G	0d]	1b-y	0dd]
1d	.	1a	.
=110	=110	=110	=110
1e-i	0r	2g	0r
.	.	1a	.
1d	.	.	.
.	.	[2a	.
=111	=111	=111	=111
2c	0r	2a]	0r
2B-y	.	4g	.
.	.	4f	.
1c	.	1e	.
=112	=112	=112	=112
0d	2.d	0d	1r
.	4e	.	.
.	1f	.	2.a
.	.	.	4b-y
=113	=113	=113	=113
1r	2.e	0r	1cc
.	4f	.	.
2.G	1g	.	2.b-y
4A	.	.	4cc
=114	=114	=114	=114
1B-y	0r	2.d	1dd
.	.	4e	.
2.A	.	2f	1r
.	.	[2e	.
4B-y	.	.	.
=115	=115	=115	=115
1.c	1r	4e]	1r
.	.	4f	.
.	.	1g	.
.	2r	.	2r
2c	2g	2g	2cc
=116	=116	=116	=116
1c	1e	1a	1cc
1d	1f	1b-y	1ff
=117	=117	=117	=117
1c	2g	2cc	2ee
.	1e	2.a	2cc
2.B-y	.	.	2dd
.	.	4g	.
.	[2d	[2g	2b-y
8AL	.	.	.
8GJ	.	.	.
=118	=118	=118	=118
1A	2d]	2g]	1cc
.	2c	2f#i	.
[1G	1d	[1g	[1b-y
=119	=119	=119	=119
0G_	2r	0g_	0b-]
.	2.G	.	.
.	4A	.	.
.	4B-y	.	.
.	4c	.	.
=120	=120	=120	=120
1G]	2d	1g]	2r
.	1e	.	2g
1r	.	1r	4g
.	.	.	4a
.	[2d	.	4b-y
.	.	.	4cc
=121	=121	=121	=121
0r	2d]	0r	2dd
.	2c	.	2.ee
.	2.f	.	.
.	.	.	4dd
.	.	.	[2dd
.	4e	.	.
=122	=122	=122	=122
0r	4f	0r	2dd]
.	4d	.	.
.	2.e	.	2cc
.	.	.	1ff
.	4d	.	.
.	[2d	.	.
=123	=123	=123	=123
0r	2d]	0r	1ee
.	2c#i	.	.
.	1d	.	1dd
=124	=124	=124	=124
1B-y	2r	1b-y	2r
.	2d	.	2dd
2F	2c	2a	2.ff
2F	2c	2a	.
.	.	.	4ee
=125	=125	=125	=125
1B-y	1d	1b-y	1dd
2F	2c	2a	2.ff
2F	2c	2a	.
.	.	.	4ee
=126	=126	=126	=126
0B-y	1d	0b-y	1dd
.	2d	.	2.ff
.	2d	.	.
.	.	.	4ee
=127	=127	=127	=127
0r	2f	0r	2dd
.	2f	.	2cc
.	2f	.	2dd
.	2e	.	2ee
=128	=128	=128	=128
2.B-y	1d	2.b-y	1ff
4B-y	.	4a	.
2B-y	1r	2g	1r
2B-y	.	2f	.
=129	=129	=129	=129
2B-y	0r	2g	0r
2A	.	2a	.
1G	.	1b-y	.
=130	=130	=130	=130
2.d	0r	2.f	0r
4d	.	4g	.
2d	.	2a	.
2d	.	2b-y	.
=131	=131	=131	=131
2c	0r	2g	1r
2c	.	2g	.
[1d	.	1f	[1ff
=132	=132	=132	=132
1d]	1.f	0r	2ff]
.	.	.	2ee
1r	.	.	2dd
.	2e	.	2cc
=133	=133	=133	=133
0r	2d	0r	2ff
.	2c	.	2.ee
.	2f	.	.
.	.	.	4dd
.	2f	.	[2dd
=134	=134	=134	=134
0r	1e	0r	2dd]
.	.	.	2cc#i
.	1d	.	[1dd
=135	=135	=135	=135
0d	0f	0b-y	1dd]
.	.	.	1r
=136	=136	=136	=136
2c	2e	2a	0r
2B-y	2d	2g	.
1c	1e	1a	.
=137	=137	=137	=137
0G	0d	0g	0r
=138	=138	=138	=138
*M3/1	*M3/1	*M3/1	*M3/1
*met(C|3)	*met(C|3)	*met(C|3)	*met(C|3)
1d	1d	1a	1ff
1A	1e	1a	1ee
1d	1f	1a	1dd
=139	=139	=139	=139
1A	1e	1a	1cc
1d	1f	1b-y	1dd
1c	1g	1cc	1ee
=140	=140	=140	=140
0d	0f	0a	0dd
1A	1e	1a	1cc#i
=141	=141	=141	=141
0.D	0.d	0.f	0.dd
=142	=142	=142	=142
1A	0.r	1cc	0.r
1B-y	.	1b-y	.
1c	.	1a	.
=143	=143	=143	=143
1B-y	0.r	1g	0.r
1c	.	1a	.
1d	.	1b-y	.
=144	=144	=144	=144
1.c	0.r	1.a	0.r
4B-y	.	4g	.
4A	.	4f	.
1B-y	.	1g	.
=145	=145	=145	=145
0.A	0.r	0.a	0.r
=146	=146	=146	=146
0d	0d	0a	0ff
1A	1e	1a	1ee
=147	=147	=147	=147
1d	1f	1a	1dd
1A	1e	1a	1cc
1d	1f	1b-y	1dd
=148	=148	=148	=148
0c	0g	0cc	0ee
1c	1g	1cc	1ee
=149	=149	=149	=149
1c	1g	1cc	1ee
0d	0f	0b-y	0ff
=150	=150	=150	=150
0c	0g	0cc	0ee
1c	1g	1cc	1ee
=151	=151	=151	=151
1d	1.f	1a	1.dd
0A	.	0a	.
.	4e	.	4cc#i
.	4d	.	4bnXi
.	1e	.	1cc#i
=152	=152	=152	=152
*M2/1	*M2/1	*M2/1	*M2/1
*met(C|)	*met(C|)	*met(C|)	*met(C|)
1D	0d	1a	1dd
2r	.	2g	2r
[2d	.	2f	2dd
=153	=153	=153	=153
2d]	1r	1e	4ee
.	.	.	4ff
2c#i	.	.	4gg
.	.	.	4ee
1d	2r	1d	2ff
.	2f	.	[2ee
=154	=154	=154	=154
2c	2g	2r	4ee]
.	.	.	4dd
2B-y	2d	2g	1dd
1A	1e	4a	.
.	.	4b-y	.
.	.	4cc	2cc#i
.	.	4a	.
=155	=155	=155	=155
2r	1d	2b-y	1dd
2d	.	2.a	.
2c	2r	.	1r
.	.	4g	.
2B-y	2G	[2g	.
=156	=156	=156	=156
1A	4A	2g]	1r
.	4B-y	.	.
.	4c	2f#i	.
.	4A	.	.
1G	2.B-y	[1g	2r
.	.	.	2dd
.	4G	.	.
=157	=157	=157	=157
2r	2c	1g]	4ee
.	.	.	4ff
2G	2B-y	.	4gg
.	.	.	4ee
4A	1A	1r	2ff
4B-y	.	.	.
4c	.	.	[2ee
4A	.	.	.
=158	=158	=158	=158
1B-y	2G	2r	4ee]
.	.	.	4dd
.	2d	2g	1dd
1A	2f	4a	.
.	.	4b-y	.
.	2e	4cc	2cc#i
.	.	4a	.
=159	=159	=159	=159
2r	2d	2b-y	1dd
2d	2f	1a	.
2c	2e	.	2r
2B-y	[2d	[2g	2g
=160	=160	=160	=160
1A	2d]	4g]	4a
.	.	8fL	4b-y
.	.	8eJ	.
.	2c	2f	4cc
.	.	.	4a
2G	1d	2g	2b-y
2D	.	[2f	[2a
=161	=161	=161	=161
2F	2c	4f]	4a]
.	.	4e	4g
2G	2B-y	4d	1g
.	.	4c	.
1D	1A	1d	.
.	.	.	2f#i
=162	=162	=162	=162
00Gl	00Gl	00dl	00gl
==	==	==	==
*-	*-	*-	*-
!!!system-decoration: [*]
!!!RDF**kern: i = editorial accidental
!!!RDF**kern: l = terminal long
!!!ENC: Benjamin Ory
!!!END: 2024/12/7
!!!EED: Benjamin Ory
!!!EEV: 2024/12/07
!!!YEC: Copyright 2024 Benjamin Ory, All Rights Reserved
!!!ONB: Translated from MusicXML on 2024/12/07